src/img/blog-eye.svg

<svg width="16" height="10" viewBox="0 0 16 10" fill="none" xmlns="http://www.w3.org/2000/svg">
<rect width="16" height="10" fill="black" fill-opacity="0"/>
<path d="M15.8215 4.40115C14.988 3.0759 13.8674 2.01106 12.4598 1.20667C11.052 0.402255 9.56549 0 8 0C6.43451 0 4.94793 0.402103 3.54018 1.20667C2.1324 2.01106 1.01183 3.0759 0.178505 4.40115C0.0595122 4.60367 0 4.80334 0 5.00015C0 5.19696 0.0595122 5.39663 0.178505 5.5991C1.01183 6.92441 2.1324 7.98933 3.54018 8.79354C4.94793 9.59805 6.43451 10 8 10C9.56552 10 11.052 9.59939 12.4598 8.79792C13.8674 7.99642 14.9882 6.93009 15.8215 5.5991C15.9405 5.39663 16 5.19705 16 5.00015C16 4.80334 15.9405 4.60367 15.8215 4.40115ZM6.08469 2.02693C6.6174 1.50902 7.25577 1.24997 7.99991 1.24997C8.1189 1.24997 8.22016 1.29059 8.30353 1.37156C8.38678 1.45256 8.42863 1.55098 8.42863 1.6667C8.42863 1.78251 8.38678 1.88087 8.30372 1.96174C8.22047 2.04283 8.11915 2.08333 8.00012 2.08333C7.48825 2.08333 7.05062 2.25992 6.68757 2.61286C6.3244 2.96601 6.14292 3.39132 6.14292 3.88898C6.14292 4.00485 6.10114 4.10315 6.01786 4.18421C5.93446 4.26533 5.83332 4.3058 5.7143 4.3058C5.59518 4.3058 5.49401 4.26524 5.41064 4.18421C5.32724 4.10315 5.28558 4.00473 5.28558 3.88898C5.28558 3.16565 5.55202 2.54488 6.08469 2.02693ZM11.8795 7.83454C10.686 8.5375 9.39289 8.88919 8 8.88919C6.60714 8.88919 5.31401 8.53771 4.12057 7.83454C2.92714 7.13137 1.93457 6.18661 1.14293 5.00015C2.04768 3.63434 3.18161 2.61283 4.54469 1.93587C4.18162 2.53764 4.00002 3.18876 4.00002 3.88895C4.00002 4.95968 4.39146 5.87526 5.17412 6.63638C5.95679 7.39751 6.89885 7.7779 8 7.7779C9.10124 7.7779 10.043 7.39729 10.8259 6.63638C11.6087 5.87547 12 4.95968 12 3.88895C12 3.18876 11.8184 2.53755 11.4553 1.93587C12.8183 2.61283 13.9523 3.63443 14.857 5.00015C14.0655 6.18661 13.073 7.13137 11.8795 7.83454Z" fill="white"/>
</svg>

<svg width="16" height="10" viewBox="0 0 16 10" fill="none" xmlns="http://www.w3.org/2000/svg"><path fill="#000" fill-opacity="0" d="M0 0h16v10H0z"/><path d="M15.822 4.401c-.834-1.325-1.955-2.39-3.362-3.194C11.052.402 9.565 0 8 0S4.948.402 3.54 1.207C2.132 2.01 1.012 3.076.18 4.4a1.177 1.177 0 0 0-.179.6c0 .196.06.396.179.598.833 1.325 1.953 2.39 3.361 3.195C4.948 9.598 6.435 10 8 10c1.566 0 3.052-.4 4.46-1.202 1.407-.802 2.528-1.868 3.361-3.199.12-.202.179-.402.179-.599 0-.197-.06-.396-.178-.599zM6.085 2.027A2.65 2.65 0 0 1 8 1.25c.119 0 .22.04.304.122.083.08.125.179.125.295a.397.397 0 0 1-.125.295.42.42 0 0 1-.304.121c-.512 0-.95.177-1.312.53a1.715 1.715 0 0 0-.545 1.276.397.397 0 0 1-.125.295.42.42 0 0 1-.304.122.42.42 0 0 1-.303-.122.396.396 0 0 1-.125-.295c0-.723.266-1.344.799-1.862zm5.795 5.808A7.51 7.51 0 0 1 8 8.889a7.508 7.508 0 0 1-3.88-1.054A9.1 9.1 0 0 1 1.144 5c.905-1.366 2.039-2.387 3.402-3.064A3.714 3.714 0 0 0 4 3.889c0 1.07.391 1.986 1.174 2.747C5.957 7.398 6.9 7.778 8 7.778s2.043-.38 2.826-1.142C11.609 5.876 12 4.96 12 3.89c0-.7-.182-1.351-.545-1.953 1.363.677 2.497 1.698 3.402 3.064a9.098 9.098 0 0 1-2.977 2.835z" fill="#fff"/></svg>
